X:152
T:Bring me a Boat
M:3/4
L:1/4
K:C Lydian
%%partsbox
"C"EDE|"G"G2 G|"D"A>G A|"G"B2 d|"C"edd|"G"G>G G|"Em"A<B G|"C"E3|!
w:Bring me a boat to cross to my dear. I stand here a-lone with my sweet-heart so near.
EDE|"G"G2 G|"D"A>G A|"Em"B2 d/d/|"C"edg|"G"BAG|"D"A A>G|"G"G2 !
w:Bring me a boat to cross o'er the Tyne. For its deep mur-ky wa-ters part his heart and mine.
"@-67.5,-37.5 (Chorus)"d/d/|"C"e>d e/g/|"Am7"g2 e|"G"dB>d|"Bm7"d2 d/d/|"C"edG|"G"GAB|"Am7"cBA|E2 !
w:And the Tyne it flows* on and out to the sea If a boat I am gran-ted then safe let me be.
E|EDE|"G"G2 G|"D"A>G A|"Em"B2 d|"C"edd|"G"G>A B|"D"AAG|"G"G3|!
w:And gent-ly I'll go, for gent-ly I'll row. As gent-ly you breathe as you ebb and you flow.
W:
W:Does he know I stand each day by the shore
W:Does he know I'd give all to see him once more
W:Does he know I've wept ten thousand times o'er
W:And is he still waiting as he has before
W:~ Chorus ~
W:
W:
W:The boatman he wants the gold I can't give him
W:My parents are poor so I've nothing to give
W:Only my heart and that will not float
W:So please don't deny me and bring me a boat
W:~ Chorus ~

